X:2
T:Sönderhoning 
T:(variation 2)
R:Sönderhoning
M:2/4
L:1/8
Q:1/4=100
K:G
DG G/G/2G | GB B/B/B | B/B/B dd | cc B2 | 
BG G/G/2G | GG/B/ B/B/B | B/B/B/B/ dd | cc B2 |] 
d>B BB | cA A2 | AA/G/ FD/F/ | AA A2 |
dd/c/ BB | ce A2 | AA/G/ FG | A/c/A/F/ G2|]

